X: 41107
T: Trip To Sligo, The
R: jig
M: 6/8
K: Gmajor
D|E2B BGE|D2d AFD|E2B BGE|GF Ee2f|
gfe dcB|AFd AFD|E2B BGB|AGFE2:|
|:B|eBe gbe|fdf fgf|eBe gbe|
faf gfe|eBe gbe|d^cd AFD|EFG ABc|BG FE2:|

